X:1
T:Concerto Per Flautino III. Allegro Molto in C Major
T:III. Allegro Molto
T:from "Concerto Per Flautino (Op. 44 / RV 443) arr. for Recorder Solo 
T:Antonio Vivaldi (1678-1741) 
T:2020
T:2020
T:2020
T:2020
C:Antonio Vivaldi
Z:2020
L:1/8
M:4/4
K:G
V:1 treble+8 nm="Recorder" snm="Rec."
V:1
 dg/f/ gB Bd/c/ dG | Gg/f/ gB Bd/c/ dG | Gg a/4g/4a/4g/4a/4g/4a/4g/4 ff a/4g/4a/4g/4a/4g/4a/4g/4 | %3
 ee f/4e/4f/4e/4f/4e/4f/4e/4 dd e/4d/4e/4d/4e/4d/4e/4d/4 | %4
 cc d/4c/4d/4c/4d/4c/4d/4c/4 B/G/B/d/ .g2 | z/ G/B/d/ .g2 d/B/d/B/ d/B/d/B/ | %6
 c/e/c/e/ c/e/c/e/ d/B/d/B/ d/B/d/B/ | c/e/c/e/ c/e/c/e/ dgAf | %8
 gd e/4d/4e/4d/4e/4d/4e/4d/4 cg a/4g/4a/4g/4a/4g/4a/4g/4 | %9
 fa b/4a/4b/4a/4b/4a/4b/4a/4 g/d/g/d/ g/b/a/g/ | f/d/f/d/ f/a/g/f/ g/G/A/G/ A/G/A/G/ | %11
 f/F/G/F/ G/F/G/F/ e/E/F/E/ F/E/F/E/ | F/D/A/F/ d/A/f/d/ gG g/4=f/4g/4f/4g/4f/4g/4f/4 | %13
 e/G/c/G/ e/c/g/e/ aA a/4g/4a/4g/4a/4g/4a/4g/4 | f/d/f/a/ e/^c/e/a/ f/d/f/a/ e/c/e/a/ | %15
 f/d/A/F/ D/F/A/d/ e/^c/A/E/ ^C/E/A/c/ | %16
 d/f/e/d/ a/4g/4a/4g/4a/4g/4a/4g/4 f/A/G/F/ A/4G/4A/4G/4A/4G/4A/4G/4 | %17
 F/f/e/d/ f/4e/4f/4e/4f/4e/4f/4e/4 da/g/ ad | df/e/ fA Aa/g/ ad | %19
 df/e/ fA Ad e/4d/4e/4d/4e/4d/4e/4d/4 | ^cc d/4c/4d/4c/4d/4c/4d/4c/4 BB c/4B/4c/4B/4c/4B/4c/4B/4 | %21
 AA B/4A/4B/4A/4B/4A/4B/4A/4 GG A/4G/4A/4G/4A/4G/4A/4G/4 | F/D/F/A/ .d2 z/ D/F/A/ .d2 | %23
 z fge d/f/a/F/ E/e/a/E/ | D/d/a/D/ ^C/^c/a/E/ F/D/A/F/ d/A/f/d/ | aA z/ f/e/^c/ _B/g/g f/e/d/c/ | %26
 d/^c/B z f B/d/f/b/ b/f/d/B/ | B/d/f/b/ b/f/d/B/ B/e/g/b/ b/g/e/B/ | %28
 B/e/g/b/ b/g/e/B/ A/^c/e/a/ a/e/c/A/ | A/^c/e/a/ a/e/c/A/ A/d/f/a/ a/f/d/A/ | %30
 A/d/f/a/ a/f/d/A/ G/B/d/g/ g/d/B/G/ | G/B/d/g/ g/d/B/G/ F/_B/^c/f/ f/c/B/F/ | %32
 F/_B/^c/f/ f/c/B/F/ d/f/d/=B/ d/f/d/B/ | G/B/G/E/ G/B/G/E/ e/g/e/B/ e/g/e/B/ | %34
 _B/^c/B/F/ B/c/B/F/ (3d/c/=B/(3e/d/c/ (3d/c/B/(3e/d/c/ | %35
 (3d/^c/B/g/4f/e/4 f/4e/d/4e/4d/c/4 d/4c/B/4g/4f/e/4 f/4e/d/4e/4d/c/4 | %36
 d/e/f/B/ d/4^c/4d/4c/4d/4c/4d/4c/4 B2 f/d/f/d/ | e/g/e/g/ e/g/e/g/ f/d/f/d/ f/d/f/d/ | %38
 e/g/e/g/ e/g/e/g/ fde^c | B2 z/ f/e/f/ e/4d/4e/4d/4e/4d/4e/4d/4 z/ d/^c/d/ | %40
 ^c/4B/4c/4B/4c/4B/4c/4B/4 z/ b/_b/=b/ g/4f/4g/4f/4g/4f/4g/4f/4 z/ f/e/f/ | %41
 e/4d/4e/4d/4e/4d/4e/4d/4 z B B/^c/d/e/ fB | =f2 ^f2 A/B/^c/d/ eA | _e2 =e2 G/A/B/^c/ dG | %44
 ^c2 d2 f/e/_e/c/ B/A/G/F/ | GE z B e/d/e/B/ e/d/e/B/ | c/B/c/A/ c/B/c/A/ d/c/d/A/ d/c/d/A/ | %47
 B/A/B/G/ B/A/B/G/ e/d/e/B/ e/d/e/B/ | c/B/c/A/ c/B/c/A/ f/e/f/^c/ f/e/f/c/ | %49
 _eB (3z/ B/^c/(3e/=e/f/ (7:8:6g/4A3/8B/4c/4_e3/8=e/4 f/4G/A/4B/4c/_e/4 | %50
 (3e/F/G/A/4B/c/4 d/4E/F/4G/4A/B/4 c/4B/c/4c/4B/c/4 B/4A/B/4A/4G/A/4 | %51
 (3G/E/F/G/4A/B/4 c/4A/B/4c/4d/e/4 _e/4B/^c/4e/4=e/f/4 g/4e/f/4g/4f/e/4 | %52
 (3a/g/f/(3g/f/e/ g/4f/4g/4f/4g/4f/4g/4f/4 ee/_e/ =eG | GB/A/ BE Ee/_e/ =eG | %54
 GB/A/ BE Ee f/4e/4f/4e/4f/4e/4f/4e/4 | %55
 _ed =e/4d/4e/4d/4e/4d/4e/4d/4 ^c=c d/4c/4d/4c/4d/4c/4d/4c/4 | %56
 BB c/4B/4c/4B/4c/4B/4c/4B/4 AA B/4A/4B/4A/4B/4A/4B/4A/4 | Gef_e =e2 (3z/ G/A/(3B/c/d/ | %58
 ed (3z/ B/c/(3d/e/f/ gG (3z/ d/e/(3f/g/a/ | %59
 (3b/a/g/f/4e/d/4 c/4c/d/4e/4f/g/4 a/4g/f/4e/4d/c/4 B/4B/c/4d/4e/f/4 | %60
 (3g/f/e/d/4c/B/4 A/4A/B/4c/4d/e/4 f/4d/e/4f/4e/d/4 g/4d/e/4f/4e/d/4 | %61
 (3a/d/e/f/4e/d/4 b/4d/e/4f/4e/d/4 c'/4b/a/4b/4a/g/4 a/4g/f/4g/4f/e/4 | %62
 fd (3z/ D/E/(3F/E/D/ (7:8:6b/4g3/8a/4b/4a3/8g/4 a/4D/E/4F/4E/D/4 | %63
 (3a/f/g/a/4g/f/4 g/4D/E/4F/4E/D/4 g/4e/f/4g/4f/e/4 f/4D/E/4F/4E/D/4 | %64
 (3f/e/d/f/4e/d/4 e/4D/E/4F/4E/D/4 e/4c/d/4e/4d/c/4 d/4D/E/4F/4E/D/4 | %65
 (3c/B/A/B/4A/G/4 d/4c/B/4c/4B/A/4 e/4d/c/4d/4c/B/4 f/4e/d/4e/4d/c/4 | %66
 (3g/f/e/(3f/e/d/ (3a/g/f/(3g/f/e/ fd (3z/ d/e/(3f/g/a/ | %67
 (3d/d/e/(3f/g/a/ (3d/d/e/(3f/g/a/ (3d/e/f/(3g/a/b/ g/4f/4g/4f/4-f/g/ | %68
 g2 (3z/ d/e/(3f/g/a/ (7:8:6d/4d3/8e/4f/4g3/8a/4 d/4d/e/4f/4g/a/4 | %69
 (3b/a/g/(3a/g/f/ (3g/f/e/(3f/e/d/ (3e/f/g/(3a/b/c'/ g/4f/4g/4f/4-f/g/ | %70
 Gg a/4g/4a/4g/4a/4g/4a/4g/4 ff g/4f/4g/4f/4g/4f/4g/4f/4 | %71
 ee f/4e/4f/4e/4f/4e/4f/4e/4 dd e/4d/4e/4d/4e/4d/4e/4d/4 | %72
 cc d/4c/4d/4c/4d/4c/4d/4c/4 B/G/B/d/ .g2 | z/ G/B/d/ .g2 d/B/d/B/ d/B/d/B/ | %74
 c/e/c/e/ c/e/c/e/ d/B/d/B/ d/B/d/B/ | c/e/c/e/ c/e/c/e/ dgAf | g2 z2 z4 |] %77

